evolvere-2-blue/mimetypes/64/text-plain.svg

<?xml version="1.0" encoding="UTF-8" standalone="no"?>
<!-- Created with Inkscape (http://www.inkscape.org/) -->

<svg
   xmlns:dc="http://purl.org/dc/elements/1.1/"
   xmlns:cc="http://creativecommons.org/ns#"
   xmlns:rdf="http://www.w3.org/1999/02/22-rdf-syntax-ns#"
   xmlns:svg="http://www.w3.org/2000/svg"
   xmlns="http://www.w3.org/2000/svg"
   xmlns:xlink="http://www.w3.org/1999/xlink"
   xmlns:sodipodi="http://sodipodi.sourceforge.net/DTD/sodipodi-0.dtd"
   xmlns:inkscape="http://www.inkscape.org/namespaces/inkscape"
   version="1.1"
   width="64"
   height="64"
   id="svg13094"
   inkscape:version="0.92.2 5c3e80d, 2017-08-06"
   sodipodi:docname="text.svg">
  <sodipodi:namedview
     pagecolor="#f8f9fa"
     bordercolor="#666666"
     borderopacity="1"
     objecttolerance="10"
     gridtolerance="10"
     guidetolerance="10"
     inkscape:pageopacity="1"
     inkscape:pageshadow="2"
     inkscape:window-width="1920"
     inkscape:window-height="1022"
     id="namedview81"
     showgrid="true"
     inkscape:zoom="5.6568543"
     inkscape:cx="47.076104"
     inkscape:cy="25.441783"
     inkscape:window-x="-5"
     inkscape:window-y="23"
     inkscape:window-maximized="1"
     inkscape:current-layer="svg13094"
     inkscape:snap-bbox="true"
     inkscape:bbox-paths="true"
     inkscape:bbox-nodes="true"
     inkscape:snap-bbox-edge-midpoints="true"
     inkscape:snap-bbox-midpoints="true"
     inkscape:object-paths="true"
     inkscape:snap-intersection-paths="true"
     inkscape:object-nodes="true"
     inkscape:snap-smooth-nodes="true"
     inkscape:snap-midpoints="true"
     inkscape:snap-object-midpoints="true"
     inkscape:snap-center="true"
     showborder="false">
    <inkscape:grid
       type="xygrid"
       id="grid3783"
       empspacing="5"
       visible="true"
       enabled="true"
       snapvisiblegridlinesonly="true" />
  </sodipodi:namedview>
  <defs
     id="defs11">
    <radialGradient
       inkscape:collect="always"
       xlink:href="#linearGradient832"
       id="radialGradient834"
       cx="46.869087"
       cy="36.887913"
       fx="46.869087"
       fy="36.887913"
       r="14.161133"
       gradientTransform="matrix(1.4400868,0,0,2.1184746,-19.190752,-35.791186)"
       gradientUnits="userSpaceOnUse" />
    <linearGradient
       inkscape:collect="always"
       id="linearGradient832">
      <stop
         style="stop-color:#9a2008;stop-opacity:0.30338734"
         offset="0"
         id="stop828" />
      <stop
         style="stop-color:#531102;stop-opacity:0.12156863"
         offset="1"
         id="stop830" />
    </linearGradient>
    <linearGradient
       inkscape:collect="always"
       xlink:href="#linearGradient885"
       id="linearGradient893"
       gradientUnits="userSpaceOnUse"
       x1="37"
       y1="36"
       x2="48.959652"
       y2="46.163666" />
    <linearGradient
       inkscape:collect="always"
       id="linearGradient885">
      <stop
         style="stop-color:#edf0f2;stop-opacity:0.01620029"
         offset="0"
         id="stop881" />
      <stop
         id="stop889"
         offset="0.80048281"
         style="stop-color:#ffffff;stop-opacity:0.10751104" />
      <stop
         style="stop-color:#f1f4f4;stop-opacity:0.75110459"
         offset="1"
         id="stop883" />
    </linearGradient>
    <linearGradient
       inkscape:collect="always"
       id="linearGradient909">
      <stop
         style="stop-color:#1b4757;stop-opacity:0.06801736"
         offset="0"
         id="stop905" />
      <stop
         style="stop-color:#0a4f68;stop-opacity:0.01013025"
         offset="1"
         id="stop907" />
    </linearGradient>
    <linearGradient
       gradientTransform="translate(-34,-33)"
       inkscape:collect="always"
       xlink:href="#linearGradient878"
       id="linearGradient880"
       x1="82.743576"
       y1="79.42112"
       x2="71"
       y2="69"
       gradientUnits="userSpaceOnUse" />
    <linearGradient
       inkscape:collect="always"
       id="linearGradient878">
      <stop
         style="stop-color:#e6c187;stop-opacity:1"
         offset="0"
         id="stop874" />
      <stop
         id="stop882"
         offset="0.25230676"
         style="stop-color:#d2c197;stop-opacity:1" />
      <stop
         style="stop-color:#e4d8b2;stop-opacity:1"
         offset="1"
         id="stop876" />
    </linearGradient>
    <radialGradient
       inkscape:collect="always"
       xlink:href="#linearGradient909"
       id="radialGradient917"
       gradientUnits="userSpaceOnUse"
       gradientTransform="matrix(1.1807908,0,0,1.2201507,-5.4237236,-7.2649718)"
       cx="20.339514"
       cy="28.540977"
       fx="20.339514"
       fy="28.540977"
       r="30" />
  </defs>
  <metadata
     id="metadata13099">
    <rdf:RDF>
      <cc:Work
         rdf:about="">
        <dc:format>image/svg+xml</dc:format>
        <dc:type
           rdf:resource="http://purl.org/dc/dcmitype/StillImage" />
        <dc:title />
      </cc:Work>
    </rdf:RDF>
  </metadata>
  <path
     inkscape:connector-curvature="0"
     d="M 4,0 H 64 V 62 H 4 Z"
     id="path3960-5"
     style="fill:#e4dba9;fill-opacity:1;fill-rule:nonzero" />
  <rect
     y="0"
     x="13"
     height="62"
     width="1"
     id="rect10203"
     style="color:#000000;fill:#cb0000;fill-opacity:0.21819787;fill-rule:nonzero;stroke:none;stroke-width:2.28571415;marker:none;visibility:visible;display:inline;overflow:visible;enable-background:accumulate" />
  <path
     inkscape:connector-curvature="0"
     id="rect10209"
     d="m 4,16 0,1 60,0 0,-1 -60,0 z m 0,6 0,1 60,0 0,-1 -60,0 z m 0,6 0,1 60,0 0,-1 -60,0 z m 0,6 0,1 60,0 0,-1 -60,0 z m 0,6 0,1 60,0 0,-1 -60,0 z m 0,6 0,1 60,0 0,-1 -60,0 z m 0,6 0,1 60,0 0,-1 -60,0 z"
     style="color:#000000;fill:#2d7dd3;fill-opacity:0.2342105;fill-rule:nonzero;stroke:none;stroke-width:2.28571415;marker:none;visibility:visible;display:inline;overflow:visible;enable-background:accumulate" />
  <path
     inkscape:connector-curvature="0"
     style="fill:url(#radialGradient834);fill-opacity:1;fill-rule:nonzero"
     d="M 60,2 H 4 V 62 H 35.677734 64 V 37 6 Z"
     id="path3900-3"
     sodipodi:nodetypes="cccccccc" />
  <path
     style="fill:#ece3c2;fill-rule:nonzero;fill-opacity:1"
     d="M 0 2 L 0 64 L 34 64 L 60 33 L 60 2 L 0 2 z M 10 5 C 11.656854 5 13 6.3431458 13 8 C 13 9.656854 11.656854 11 10 11 C 8.3431458 11 7 9.656854 7 8 C 7 6.3431458 8.3431458 5 10 5 z M 20 5 C 21.656854 5 23 6.3431458 23 8 C 23 9.656854 21.656854 11 20 11 C 18.343146 11 17 9.656854 17 8 C 17 6.3431458 18.343146 5 20 5 z M 30 5 C 31.656854 5 33 6.3431458 33 8 C 33 9.656854 31.656854 11 30 11 C 28.343146 11 27 9.656854 27 8 C 27 6.3431458 28.343146 5 30 5 z M 40 5 C 41.656854 5 43 6.3431458 43 8 C 43 9.656854 41.656854 11 40 11 C 38.343146 11 37 9.656854 37 8 C 37 6.3431458 38.343146 5 40 5 z M 50 5 C 51.656854 5 53 6.3431458 53 8 C 53 9.656854 51.656854 11 50 11 C 48.343146 11 47 9.656854 47 8 C 47 6.3431458 48.343146 5 50 5 z "
     id="path4257" />
  <path
     style="color:#000000;display:inline;overflow:visible;visibility:visible;fill:url(#linearGradient893);fill-opacity:1;fill-rule:nonzero;stroke:none;stroke-width:1;marker:none;enable-background:accumulate"
     d="M 0 2 L 0 64 L 34 64 L 60 33 L 60 2 L 0 2 z M 10 5 C 11.656854 5 13 6.3431458 13 8 C 13 9.656854 11.656854 11 10 11 C 8.3431458 11 7 9.656854 7 8 C 7 6.3431458 8.3431458 5 10 5 z M 20 5 C 21.656854 5 23 6.3431458 23 8 C 23 9.656854 21.656854 11 20 11 C 18.343146 11 17 9.656854 17 8 C 17 6.3431458 18.343146 5 20 5 z M 30 5 C 31.656854 5 33 6.3431458 33 8 C 33 9.656854 31.656854 11 30 11 C 28.343146 11 27 9.656854 27 8 C 27 6.3431458 28.343146 5 30 5 z M 40 5 C 41.656854 5 43 6.3431458 43 8 C 43 9.656854 41.656854 11 40 11 C 38.343146 11 37 9.656854 37 8 C 37 6.3431458 38.343146 5 40 5 z M 50 5 C 51.656854 5 53 6.3431458 53 8 C 53 9.656854 51.656854 11 50 11 C 48.343146 11 47 9.656854 47 8 C 47 6.3431458 48.343146 5 50 5 z "
     id="path891" />
  <path
     id="path915"
     d="M 0,2 V 64 H 34 L 60,33 V 2 Z m 10,3 c 1.656854,0 3,1.3431458 3,3 0,1.656854 -1.343146,3 -3,3 C 8.3431458,11 7,9.656854 7,8 7,6.3431458 8.3431458,5 10,5 Z m 10,0 c 1.656854,0 3,1.3431458 3,3 0,1.656854 -1.343146,3 -3,3 -1.656854,0 -3,-1.343146 -3,-3 0,-1.6568542 1.343146,-3 3,-3 z m 10,0 c 1.656854,0 3,1.3431458 3,3 0,1.656854 -1.343146,3 -3,3 -1.656854,0 -3,-1.343146 -3,-3 0,-1.6568542 1.343146,-3 3,-3 z m 10,0 c 1.656854,0 3,1.3431458 3,3 0,1.656854 -1.343146,3 -3,3 -1.656854,0 -3,-1.343146 -3,-3 0,-1.6568542 1.343146,-3 3,-3 z m 10,0 c 1.656854,0 3,1.3431458 3,3 0,1.656854 -1.343146,3 -3,3 -1.656854,0 -3,-1.343146 -3,-3 0,-1.6568542 1.343146,-3 3,-3 z"
     style="color:#000000;display:inline;overflow:visible;visibility:visible;fill:url(#radialGradient917);fill-opacity:1;fill-rule:nonzero;stroke:none;stroke-width:1;marker:none;enable-background:accumulate"
     inkscape:connector-curvature="0" />
  <g
     id="g3043"
     inkscape:export-filename="folder.png"
     inkscape:export-xdpi="90"
     inkscape:export-ydpi="90"
     transform="translate(70.143498,-4.1187801)" />
  <g
     id="scalable"
     transform="matrix(1.0385892,0,0,1.0385892,1285.4907,1874.611)"
     inkscape:label="#g3701"
     style="fill:#ffffff" />
  <g
     transform="translate(162.76849,-7.7437785)"
     inkscape:export-ydpi="90"
     inkscape:export-xdpi="90"
     inkscape:export-filename="folder.png"
     id="g3043-7" />
  <g
     style="fill:#ffffff"
     inkscape:label="#g3701"
     transform="matrix(1.0385892,0,0,1.0385892,1378.1157,1870.986)"
     id="scalable-6" />
  <path
     style="color:#000000;fill:#cb0000;fill-opacity:0.21819787;fill-rule:nonzero;stroke:none;stroke-width:2.28571415;marker:none;visibility:visible;display:inline;overflow:visible;enable-background:accumulate"
     d="M 9 2 L 9 5.1875 C 9.3164717 5.0739786 9.6444667 5 10 5 L 10 2 L 9 2 z M 9 10.8125 L 9 64 L 10 64 L 10 11 C 9.6444667 11 9.3164717 10.926021 9 10.8125 z "
     id="rect4291" />
  <path
     style="color:#000000;display:inline;overflow:visible;visibility:visible;fill:#2d7dd3;fill-opacity:0.18409425;fill-rule:nonzero;stroke:none;stroke-width:2.28571415;marker:none;enable-background:accumulate"
     d="m 0,18 v 1 h 60 v -1 z m 0,6 v 1 h 60 v -1 z m 0,6 v 1 h 60 v -1 z m 0,6 v 1 h 56.46875 l 0.84375,-1 z m 0,6 v 1 h 51.4375 l 0.84375,-1 z m 0,6 v 1 H 46.40625 L 47.25,48 Z m 0,6 v 1 h 41.375 l 0.84375,-1 z"
     id="path920"
     inkscape:connector-curvature="0" />
  <path
     inkscape:connector-curvature="0"
     d="M 34,64 60,33 c -2.328567,2.776369 -4.36141,3 -11,3 H 37 v 15 c 0,6.644068 0.04437,9.370179 -3,13 z"
     id="path4278-6"
     style="opacity:1;vector-effect:none;fill:url(#linearGradient880);fill-opacity:1;fill-rule:nonzero;stroke-width:1;stroke-linecap:butt;stroke-linejoin:miter;stroke-miterlimit:4;stroke-dasharray:none;stroke-dashoffset:0;stroke-opacity:1" />
  <path
     style="color:#000000;display:inline;overflow:visible;visibility:visible;fill:#2d7dd3;fill-opacity:0.22238587;fill-rule:nonzero;stroke:none;stroke-width:2.28571415;marker:none;enable-background:accumulate"
     d="M 57 35.25 C 56.686368 35.369599 56.359583 35.478134 56 35.5625 L 56 37.769531 L 57 36.576172 L 57 35.25 z M 51 35.986328 C 50.688557 35.990538 50.336639 35.990465 50 35.992188 L 50 44.923828 L 51 43.730469 L 51 35.986328 z M 44 36 L 44 52.076172 L 45 50.884766 L 45 36 L 44 36 z "
     id="path4293" />
</svg>

<?xml version="1.0" encoding="UTF-8"?>
<!-- Created with Inkscape (http://www.inkscape.org/) -->
<svg width="64" height="64" version="1.1" xmlns="http://www.w3.org/2000/svg" xmlns:cc="http://creativecommons.org/ns#" xmlns:dc="http://purl.org/dc/elements/1.1/" xmlns:rdf="http://www.w3.org/1999/02/22-rdf-syntax-ns#">
	<defs>
		<linearGradient id="linearGradient880" x1="82.744" x2="71" y1="79.421" y2="69" gradientTransform="translate(-34,-33)" gradientUnits="userSpaceOnUse">
			<stop stop-color="#c79c60" offset="0"/>
			<stop stop-color="#caaa72" offset=".25231"/>
			<stop stop-color="#d5c095" offset="1"/>
		</linearGradient>
		<radialGradient id="radialGradient13114" cx="18.073" cy="52.994" r="30" gradientTransform="matrix(2.1226 0 0 2.1933 -28.813 -47.808)" gradientUnits="userSpaceOnUse">
			<stop stop-color="#e6c4a8" offset="0"/>
			<stop stop-color="#e1d4ad" offset="1"/>
		</radialGradient>
		<linearGradient id="linearGradient65039" x1="48.258" x2="36.557" y1="47" y2="35.298" gradientUnits="userSpaceOnUse">
			<stop stop-color="#ffffcb" stop-opacity=".30325" offset="0"/>
			<stop stop-color="#ffffff" stop-opacity="0" offset="1"/>
		</linearGradient>
		<linearGradient id="linearGradient82616" x1="53.055" x2="60.201" y1="35.97" y2="35.97" gradientUnits="userSpaceOnUse">
			<stop stop-color="#ffffff" stop-opacity=".21183" offset="0"/>
			<stop stop-color="#ffffff" stop-opacity="0" offset="1"/>
		</linearGradient>
		<radialGradient id="a" cx="46.762" cy="39.221" r="14.161" gradientTransform="matrix(.86297 .86297 -2.3655 2.3655 98.927 -83.343)" gradientUnits="userSpaceOnUse">
			<stop stop-color="#700a36" stop-opacity=".30196" offset="0"/>
			<stop stop-color="#532240" stop-opacity=".15195" offset="1"/>
		</radialGradient>
		<linearGradient id="linearGradient76950" x1="63.086" x2="63.086" y1="11.788" y2="-2.7756e-17" gradientUnits="userSpaceOnUse">
			<stop stop-color="#cdb174" offset="0"/>
			<stop stop-color="#d8c48d" offset="1"/>
		</linearGradient>
	</defs>
	<metadata>
		<rdf:RDF>
			<cc:Work rdf:about="">
				<dc:format>image/svg+xml</dc:format>
				<dc:type rdf:resource="http://purl.org/dc/dcmitype/StillImage"/>
			</cc:Work>
		</rdf:RDF>
	</metadata>
	<g>
		<path d="m4 0h60v62h-60z" fill="url(#linearGradient76950)"/>
		<rect x="13" width="1" height="62" color="#000000" fill="#cb0000" fill-opacity=".2182"/>
		<path d="m4 16v1h60v-1h-60zm0 6v1h60v-1h-60zm0 6v1h60v-1h-60zm0 6v1h60v-1h-60zm0 6v1h60v-1h-60zm0 6v1h60v-1h-60zm0 6v1h60v-1h-60z" color="#000000" fill="#2d7dd3" fill-opacity=".23421"/>
	</g>
	<g>
		<path d="m60 2h-56v60h57v-59z" fill="url(#a)" stop-color="#000000" style="-inkscape-stroke:none;font-variation-settings:normal"/>
		<path d="m0 2v62h34l26-31v-31h-60zm10 3c1.6569 0 3 1.3431 3 3s-1.3431 3-3 3-3-1.3431-3-3 1.3431-3 3-3zm10 0c1.6569 0 3 1.3431 3 3s-1.3431 3-3 3-3-1.3431-3-3 1.3431-3 3-3zm10 0c1.6569 0 3 1.3431 3 3s-1.3431 3-3 3-3-1.3431-3-3 1.3431-3 3-3zm10 0c1.6569 0 3 1.3431 3 3s-1.3431 3-3 3-3-1.3431-3-3 1.3431-3 3-3zm10 0c1.6569 0 3 1.3431 3 3s-1.3431 3-3 3-3-1.3431-3-3 1.3431-3 3-3z" fill="url(#radialGradient13114)"/>
		<path d="m0 2v62h34l26-31v-31zm10 3c1.6569 0 3 1.3431 3 3s-1.3431 3-3 3-3-1.3431-3-3 1.3431-3 3-3zm10 0c1.6569 0 3 1.3431 3 3s-1.3431 3-3 3-3-1.3431-3-3 1.3431-3 3-3zm10 0c1.6569 0 3 1.3431 3 3s-1.3431 3-3 3-3-1.3431-3-3 1.3431-3 3-3zm10 0c1.6569 0 3 1.3431 3 3s-1.3431 3-3 3-3-1.3431-3-3 1.3431-3 3-3zm10 0c1.6569 0 3 1.3431 3 3s-1.3431 3-3 3-3-1.3431-3-3 1.3431-3 3-3z" color="#000000" fill="url(#linearGradient65039)"/>
	</g>
	<g>
		<path d="m9 2v3.1875c0.31647-0.11352 0.64447-0.1875 1-0.1875v-3h-1zm0 8.8125v53.188h1v-53c-0.35553 0-0.68353-0.073979-1-0.1875z" color="#000000" fill="#cb0000" fill-opacity=".2182"/>
		<path d="m0 18v1h60v-1zm0 6v1h60v-1zm0 6v1h60v-1zm0 6v1h56.469l0.84375-1zm0 6v1h51.438l0.84375-1zm0 6v1h46.406l0.84375-1zm0 6v1h41.375l0.84375-1z" color="#000000" fill="#2d7dd3" fill-opacity=".18409"/>
		<path d="m34 64 26-31c-2.3286 2.7764-4.3614 3-11 3h-12v15c0 6.6441 0.04437 9.3702-3 13z" fill="url(#linearGradient880)"/>
		<path d="m57 35.25c-0.31363 0.1196-0.64042 0.22813-1 0.3125v2.207l1-1.1934v-1.3262zm-6 0.73633c-0.31144 0.00421-0.66336 0.004137-1 0.00586v8.9316l1-1.1934v-7.7441zm-7 0.013672v16.076l1-1.1914v-14.885h-1z" color="#000000" fill="#2d7dd3" fill-opacity=".22239"/>
	</g>
	<path d="m60 33c-2.3286 2.7764-4.3614 3-11 3h-11.5" fill="none" stroke="url(#linearGradient82616)" stroke-linecap="round" stroke-opacity=".9954"/>
	<rect y="2" width="60" height="1" fill="#ffffff" fill-opacity=".23" stop-color="#000000" style="-inkscape-stroke:none;paint-order:stroke fill markers"/>
	<rect x="4" width="60" height="1" fill="#ffffff" fill-opacity=".2" stop-color="#000000" style="-inkscape-stroke:none;paint-order:stroke fill markers"/>
	<rect transform="rotate(90)" x="2" y="-1" width="62" height="1" fill="#000000" fill-opacity=".04" stop-color="#000000" style="-inkscape-stroke:none;paint-order:stroke fill markers"/>
</svg>
